X: 12
T: The Star Of Munster
R: reel
M: 4/4
L: 1/8
K: Ador
|:ed|"Am"vc2(Ac B2)G(B|AG)E(F GE)D2|(EA)A(B cB)c(d|"G"ea)a(f "Em"gf)e(d|
|"Am"cBAc) (BA)G(B|AG)E(F GE)D2|(EA)A(B cd)(ed)|"G"(cABG) "E"A2:|
|:de|"Am"eaab ageg|agbg agef|"G"gfga ged2 |geaf "Em"gfed|
|"Am"eaab ageg|agbg agef|"G"g2ge "D"a2ga|"Em"b2ba gf:|
|:"^Alt Chords"ed|"Am"c2Ac B2GB|"B5"AGEF "C5"GED2|"G - Rest"EAAB cBcd|eaaf gfed|
|"Am"cBAc BAGB|"B5"AGEF "C5"GED2|"G - Rest"EAAB cded|"G"cABG "E"A2:|
|:de|"F"eaab ageg|agbg agef|"G"gfga ged2 |geaf gfed|
|1 "F"eaab ageg|agbg agef|"G"g2ge a2ga| b2ba gf:||
|2 "F"eaab ageg|agbg agef|"G"g2ge a2ga| "G#"b2ba gf:|

%%newpage
%%header "Yet More Smooth Jigs		$P"

